!!!!SEGMENT: Ric2036-Hoc_signum_crucis
!!!id: Ric2036
!!!AGN: Motet
!!!voices: 2
!!!COM: Jean Richafort
!!!OTL: Hoc signum crucis
**kern	**kern
*part2	*part1
*staff2	*staff1
*I"Bassus	*I"Superius
*I'B.	*I'S.
*clefF4	*clefG2
*k[]	*k[]
*M2/1	*M2/1
*met(C|)	*met(C|)
!!section: Prima pars: Hoc signum crucis
!!!OMD: Prima pars: Hoc signum crucis
=1	=1
!	!LO:TX:a:t=Altus, Tenor I, and Tenor II not extant
0r	0r
=2	=2
1r	0r
[1c	.
=3	=3
1c]	0r
1B	.
=4	=4
1A	0cc
1c	.
=5	=5
1G	1b
1D	1a
=6	=6
1r	2a
.	1cc
[1G	.
.	4b
.	4a
=7	=7
1G]	1b
1F	1a
=8	=8
1E	1r
1G	[1dd
=9	=9
1D	1dd]
2.F	1cc
4E	.
=10	=10
1D	1ff
[1C	[1ee
=11	=11
1C]	2ee]
.	4dd
.	4cc
1r	2b
.	[2dd
=12	=12
2r	4dd]
.	4cc
2C	1cc
2G	.
2G	2b
=13	=13
1A	1cc
[1G	[1b
=14	=14
1G]	1b]
2r	2r
2G	[2g
=15	=15
2.c	2g]
.	2g
4B	.
2.A	2a
.	[2cc
4G	.
=16	=16
2F	2cc]
2G	2b
1C	2.ee
.	4dd
=17	=17
1r	2cc
.	2b
1D	1a
=18	=18
2.G	1g
4F	.
2E	2r
2D	2dd
=19	=19
2C	2ee
2.c	2ee
.	2.gg
4B	.
2G	.
.	4ff
=20	=20
1A	4ee
.	4dd
.	2.ee
1E	.
.	4dd
.	2b
=21	=21
2r	2.cc
2A	.
.	4b
2A	1a
2G	.
=22	=22
1c	1g
1G	2r
.	2dd
=23	=23
1r	2ee
.	2cc
2r	2.gg
2G	.
.	4ff
=24	=24
2c	2ee
2F	2ff
2G	2dd
2E	2ee
=25	=25
1A	4ee
.	4dd
.	1cc
1G	.
.	2b
=26	=26
2r	2a
2C	2g
2F	1a
2F	.
=27	=27
2.G	2g
.	2dd
4F	.
2E	2ee
[2F	[2cc
=28	=28
4F]	4cc]
4E	4dd
2C	2ee
1G	1dd
=29	=29
1r	2.cc
.	4dd
2r	2ee
2G	2dd
=30	=30
2A	4dd
.	4cc
2F	1cc
2.G	.
.	2b
4F	.
=31	=31
2E	1cc
2F	.
1D	1ff
=32	=32
1C	1ee
1r	2r
.	2cc
=33	=33
2r	2dd
2G	2b
2A	1cc
2F	.
=34	=34
1G	2b
.	2dd
1C	2dd
.	2ee
=35	=35
2F	2cc
2D	1dd
1G	.
.	2b
=36	=36
1r	1cc
2r	1a
2D	.
=37	=37
2.G	0g
4G	.
2G	.
2G	.
=38	=38
2D	0r
2G	.
4C	.
4D	.
4E	.
4F	.
=39	=39
1.G	2r
.	2g
.	2.dd
2D	.
.	4dd
=40	=40
2.G	2dd
.	2dd
4F	.
2E	2ee
2C	2cc
=41	=41
1D	2.dd
.	4cc
1G	4b
.	4cc
.	4dd
.	4b
=42	=42
2.c	1cc
4c	.
2G	2b
2D	[2a
=43	=43
2E	4a]
.	4g
2C	1g
1D	.
.	2f
=44	=44
1E	1g
1C	2r
.	2g
=45	=45
2C	2.cc
2C	.
.	4cc
1G	2b
.	2b
=46	=46
2r	1.cc
2C	.
2.F	.
.	2cc
4F	.
=47	=47
2F	1ff
2F	.
2G	1dd
2G	.
=48	=48
2.A	2.cc
4B	4dd
2c	2ee
2G	[2dd
=49	=49
2c	4dd]
.	4cc
2F	1cc
1G	.
.	2b
=50	=50
0C	0cc
=51	=51
2r	2r
2.C	1cc
4D	.
4E	2cc
4F	.
=52	=52
1G	1b
2.D	2a
.	2a
4E	.
=53	=53
2F	4a
.	4b
2F	4cc
.	4dd
1C	2ee
.	2ee
=54	=54
2r	1dd
2.G	.
.	1gg
4A	.
4B	.
4c	.
=55	=55
2d	0ff
2.D	.
4E	.
4F	.
4G	.
=56	=56
2A	1.ee
2.E	.
4F	.
4G	2dd
4A	.
=57	=57
2B	2r
2.c	2cc
.	2dd
8BL	.
8AJ	.
2B	2dd
=58	=58
2c	2.ee
2.C	.
.	4dd
.	2cc
4D	.
4E	[2b
4F	.
=59	=59
1G	4b]
.	4a
.	4b
.	4cc
1D	1dd
=60	=60
1F	1cc
1C	2r
.	2cc
=61	=61
1r	2dd
.	2dd
2r	2cc
[2F	[2ff
=62	=62
4F]	2ff]
4G	.
4A	2ff
4B	.
2c	2ee
[2G	2dd
=63	=63
4G]	1gg
4A	.
4B	.
4c	.
2d	[1ff
[2D	.
=64	=64
4D]	1ff]
4E	.
4F	.
4G	.
2A	1ee
2E	.
=65	=65
1G	0dd
1D	.
=66	=66
0F	[0cc
=67	=67
0C	0cc]
=68	=68
1F	1a
1C	1g
=69	=69
2r	2r
2.C	1cc
4D	.
4E	2cc
4F	.
=70	=70
1G	1b
2.D	2a
.	[2a
4E	.
=71	=71
2F	4a]
.	4b
2F	4cc
.	4dd
1C	1ee
=72	=72
2r	1dd
2.G	.
.	1gg
4A	.
4B	.
4c	.
=73	=73
2d	0ff
2.D	.
4E	.
4F	.
4G	.
=74	=74
2A	1.ee
2.E	.
4F	.
4G	2dd
4A	.
=75	=75
2B	2r
2.c	2cc
.	2dd
8BL	.
8AJ	.
2B	2dd
=76	=76
2c	2.ee
2.C	.
.	4dd
.	2cc
4D	.
4E	2b
4F	.
=77	=77
1G	4b
.	4a
.	4b
.	4cc
1D	1dd
=78	=78
1F	1cc
1C	2r
.	2cc
=79	=79
1r	1dd
2r	2cc
[2F	[2ff
=80	=80
4F]	2ff]
4G	.
4A	2ff
4B	.
2c	2ee
[2G	2dd
=81	=81
4G]	1gg
4A	.
4B	.
4c	.
2d	[1ff
[2D	.
=82	=82
4D]	1ff]
4E	.
4F	.
4G	.
2A	1ee
2E	.
=83	=83
1G	0dd
1D	.
=84	=84
1.F	[0ccl
2C	.
=85	=85
0F	0cc_
=86	=86
0Cl	0cc]
==	==
*-	*-
!!!system-decoration: s1,s2
!!!ENC: Janosch Umbreit
!!!END: 2026/01/23
!!!RDF**kern: i = editorial accidental
!!!RDF**kern: l = terminal long
!!!EED: Benjamin Ory
!!!EEV: 2026/01/26
!!!YEC: Copyright 2026 Benjamin Ory, All Rights Reserved
!!!ONB: Translated from MusicXML on 2026/01/26